X: 2265
Q: "Jig."
M: 6/8
L: 1/8
K: Em
uc |\
|: uf |\
efe fdB | efe fdB | ded dAF | DFA def |\
efe fdB | efe fdB | AGF dAF | FEE E2 :|


